ix/bubble_bold.svg

<svg viewBox="0 0 24 24" fill="none" xmlns="http://www.w3.org/2000/svg" height="1em" width="1em">
  <path d="M15.5909 1.75C12.6209 1.75 10.2109 4.16 10.2109 7.13C10.2109 10.1 12.6209 12.51 15.5909 12.51C18.5609 12.51 20.9709 10.1 20.9709 7.13C20.9709 4.16 18.5609 1.75 15.5909 1.75Z" fill="#292D32"/>
  <path d="M6.3593 13.0312C4.5293 13.0312 3.0293 14.5213 3.0293 16.3613C3.0293 18.2013 4.5193 19.6913 6.3593 19.6913C8.1893 19.6913 9.6893 18.2013 9.6893 16.3613C9.6893 14.5213 8.1893 13.0312 6.3593 13.0312Z" fill="#292D32"/>
  <path d="M16.6205 16.6211C15.0705 16.6211 13.8105 17.8811 13.8105 19.4311C13.8105 20.9811 15.0705 22.2411 16.6205 22.2411C18.1705 22.2411 19.4305 20.9811 19.4305 19.4311C19.4305 17.8811 18.1705 16.6211 16.6205 16.6211Z" fill="#292D32"/>
</svg>

<svg viewBox="0 0 24 24" fill="none" xmlns="http://www.w3.org/2000/svg" height="1em" width="1em">
  <path d="M15.59 1.75c-2.97 0-5.38 2.41-5.38 5.38 0 2.97 2.41 5.38 5.38 5.38 2.97 0 5.38-2.41 5.38-5.38 0-2.97-2.41-5.38-5.38-5.38ZM6.36 13.031a3.329 3.329 0 1 0-.002 6.662 3.329 3.329 0 0 0 .001-6.662Zm10.26 3.59c-1.55 0-2.81 1.26-2.81 2.81s1.26 2.81 2.81 2.81 2.81-1.26 2.81-2.81-1.26-2.81-2.81-2.81Z" fill="#292D32"/>
</svg>
